public/assets/imgs/houseCog-icon.svg

<svg fill="none" height="185" viewBox="0 0 196 185" width="196" xmlns="http://www.w3.org/2000/svg"><path clip-rule="evenodd" d="m90.591 10.0015c-.6419-.02052-1.2873.1612-1.8511.5701l-77.5002 56.1893c-1.34101.9722-1.64028 2.8477-.6674 4.1895.9717 1.3405 2.8474 1.6408 4.1892.6681l75.9886-55.0937 75.9899 55.0937c1.341.9727 3.217.6732 4.188-.6674.973-1.3417.675-3.218-.666-4.1902l-77.5005-56.1891c-.5643-.4092-1.209-.5908-1.8504-.5703l-.16.0052zm.1601-9.99897374c-2.7287-.05377916-5.5054.75050174-7.8815 2.47340374l-77.49967 56.18887c-5.813035 4.2145-7.10773 12.3429-2.8938 18.1551 3.79335 5.2334 10.75917 6.8053 16.35197 3.9926v68.7085c-2.4126-.021-5.1245.256-7.6229 1.102-2.06586.7-4.18178 1.857-5.79384 3.753-1.66136 1.955-2.58324 4.458-2.58324 7.425 0 3.629.81719 6.656 3.18643 8.467 2.03571 1.557 4.50725 1.541 5.62075 1.534.0698-.001.1342-.001.1928-.001h100.9649c.957.192 1.974.211 3.015.022l14.008-2.541c.069-.014.141.016.18.074l8.108 11.703c3.181 4.592 9.971 4.592 13.151 0l8.109-11.703c.039-.057.109-.087.178-.074l14.009 2.542c5.496.997 10.297-3.803 9.3-9.3l-2.542-14.008c-.013-.069.017-.141.075-.18l11.702-8.108c4.592-3.182 4.592-9.971 0-13.152l-11.702-8.108c-.058-.04-.087-.111-.074-.18l2.542-14.008c.997-5.4967-3.804-10.2973-9.3-9.2998l-10.266 1.8627c.028-.1767.042-.3578.042-.5422v-15.6814c5.472 2.3787 12.05.7316 15.697-4.2994 4.214-5.8123 2.919-13.9406-2.894-18.155l-77.4995-56.18897c-2.3756-1.722587-5.1513-2.5271948-7.8804-2.47340374zm65.5769 76.41897374-65.5779-47.5449-64.922 47.0701v73.8543h12.5v-57.5003c0-4.8077 2.1919-8.152 4.9902-10.208 2.6427-1.9417 5.7162-2.6761 7.8259-2.7871.0612-.0033.1226-.0049.1839-.0049h25c4.2202 0 7.1826 1.9525 9.0043 4.4226 1.7106 2.3194 2.3731 5.0063 2.4889 6.8591.0046.0727.0068.1455.0068.2183v59.0003h3.5c1.933 0 3.5 1.567 3.5 3.5s-1.567 3.5-3.5 3.5h-69c-.1809 0-.3615-.014-.5403-.042-2.3456-.367-5.7266-.39-8.3367.494-1.2675.43-2.1516 1.004-2.7062 1.657-.5053.594-.91678 1.457-.91678 2.891 0 1.998.33098 2.714.44968 2.901.037.011.098.026.1909.041.3107.05.6855.058 1.3594.058h94.5899c-.076-.736-.051-1.5.09-2.277l2.541-14.008c.013-.07-.016-.141-.074-.181l-11.7032-8.107c-4.5918-3.182-4.5918-9.971 0-13.152l11.7032-8.108c.058-.04.086-.111.074-.18l-2.542-14.008c-.997-5.4969 3.803-10.2975 9.3-9.3001l14.008 2.5419.001.0003c.07.0125.14-.0171.18-.0749l8.108-11.7024c3.181-4.5921 9.971-4.5921 13.152 0l5.072 7.3207zm-27.767 85.9735-13.364 2.425c-.121-.013-.244-.019-.369-.019h-.978c-.33-.207-.532-.6-.454-1.027v-.001l2.534-13.971.006-.035.001-.002c.496-2.732-.629-5.562-2.982-7.188l-11.697-8.103c-.573-.398-.573-1.247 0-1.644l11.697-8.104c2.394-1.654 3.46-4.499 2.986-7.164l-.002-.012-.002-.012-2.542-14.008c-.125-.688.476-1.287 1.162-1.163l14.008 2.542.009.002h.001.001c2.812.507 5.581-.703 7.154-2.948l.01-.015.01-.014 8.108-11.7026v-.0003c.398-.5738 1.246-.5739 1.644 0v.0003l8.102 11.6946c1.599 2.316 4.412 3.491 7.195 2.982l14.003-2.54c.686-.125 1.287.475 1.162 1.162v.001l-2.535 13.971-.006.03c-.498 2.733.625 5.566 2.979 7.194l11.698 8.104c.574.398.574 1.246 0 1.644l-11.697 8.104c-2.293 1.585-3.494 4.387-2.98 7.197l2.54 13.998v.001c.125.687-.476 1.287-1.162 1.162l-13.998-2.54c-2.814-.516-5.616.69-7.198 2.981l-8.104 11.695v.001c-.397.572-1.245.574-1.643-.001l-8.101-11.693c-1.619-2.347-4.449-3.485-7.196-2.984zm-118.2581 2.343c.0118.012.0165.019.0165.019s-.0063-.005-.0165-.019zm70.5252-14.937v-25.5h-9.5c-1.933 0-3.5-1.567-3.5-3.5v-8c0-1.933 1.567-3.5 3.5-3.5h9.5v-18.3741c-.0695-.8183-.4091-2.0723-1.1293-3.0488-.6366-.8632-1.5909-1.5774-3.3707-1.5774h-24.8962c-1.0602.0719-2.6861.4905-3.9689 1.433-1.1601.8524-2.1349 2.1747-2.1349 4.567v57.5003zm80.9999-16c0 9.389-7.611 17-17 17s-17-7.611-17-17 7.611-17 17-17 17 7.611 17 17zm8 0c0 13.807-11.193 25-25 25s-25-11.193-25-25 11.193-25 25-25 25 11.193 25 25z" fill="#000" fill-rule="evenodd"/></svg>

<svg width="196" height="185" viewBox="0 0 196 185" fill="none" xmlns="http://www.w3.org/2000/svg">
<path fill-rule="evenodd" clip-rule="evenodd" d="M90.591 10.0015C89.9491 9.98098 89.3037 10.1627 88.7399 10.5716L11.2397 66.7609C9.89869 67.7331 9.59942 69.6086 10.5723 70.9504C11.544 72.2909 13.4197 72.5912 14.7615 71.6185L90.7501 16.5248L166.74 71.6185C168.081 72.5912 169.957 72.2917 170.928 70.9511C171.901 69.6094 171.603 67.7331 170.262 66.7609L92.7615 10.5718C92.1972 10.1626 91.5525 9.981 90.9111 10.0015L90.7511 10.0067L90.591 10.0015ZM90.7511 0.00252626C88.0224 -0.0512529 85.2457 0.753028 82.8696 2.47593L5.36993 58.6648C-0.443105 62.8793 -1.7378 71.0077 2.47613 76.8199C6.26948 82.0533 13.2353 83.6252 18.8281 80.8125V149.521C16.4155 149.5 13.7036 149.777 11.2052 150.623C9.13934 151.323 7.02342 152.48 5.41136 154.376C3.75 156.331 2.82812 158.834 2.82812 161.801C2.82812 165.43 3.64531 168.457 6.01455 170.268C8.05026 171.825 10.5218 171.809 11.6353 171.802C11.7051 171.801 11.7695 171.801 11.8281 171.801H112.793C113.75 171.993 114.767 172.012 115.808 171.823L129.816 169.282C129.885 169.268 129.957 169.298 129.996 169.356L138.104 181.059C141.285 185.651 148.075 185.651 151.255 181.059L159.364 169.356C159.403 169.299 159.473 169.269 159.542 169.282L173.551 171.824C179.047 172.821 183.848 168.021 182.851 162.524L180.309 148.516C180.296 148.447 180.326 148.375 180.384 148.336L192.086 140.228C196.678 137.046 196.678 130.257 192.086 127.076L180.384 118.968C180.326 118.928 180.297 118.857 180.31 118.788L182.852 104.78C183.849 99.2833 179.048 94.4827 173.552 95.4802L163.286 97.3429C163.314 97.1662 163.328 96.9851 163.328 96.8007V81.1193C168.8 83.498 175.378 81.8509 179.025 76.8199C183.239 71.0076 181.944 62.8793 176.131 58.6649L98.6315 2.47593C96.2559 0.753343 93.4802 -0.0512648 90.7511 0.00252626ZM156.328 76.4215L90.7501 28.8766L25.8281 75.9467V149.801H38.3281V92.3007C38.3281 87.493 40.52 84.1487 43.3183 82.0927C45.961 80.151 49.0345 79.4166 51.1442 79.3056C51.2054 79.3023 51.2668 79.3007 51.3281 79.3007H76.3281C80.5483 79.3007 83.5107 81.2532 85.3324 83.7233C87.043 86.0427 87.7055 88.7296 87.8213 90.5824C87.8259 90.6551 87.8281 90.7279 87.8281 90.8007V149.801H91.3281C93.2611 149.801 94.8281 151.368 94.8281 153.301C94.8281 155.234 93.2611 156.801 91.3281 156.801H22.3281C22.1472 156.801 21.9666 156.787 21.7878 156.759C19.4422 156.392 16.0612 156.369 13.4511 157.253C12.1836 157.683 11.2995 158.257 10.7449 158.91C10.2396 159.504 9.82812 160.367 9.82812 161.801C9.82812 163.799 10.1591 164.515 10.2778 164.702C10.3148 164.713 10.3758 164.728 10.4687 164.743C10.7794 164.793 11.1542 164.801 11.8281 164.801H106.418C106.342 164.065 106.367 163.301 106.508 162.524L109.049 148.516C109.062 148.446 109.033 148.375 108.975 148.335L97.2718 140.228C92.68 137.046 92.68 130.257 97.2718 127.076L108.975 118.968C109.033 118.928 109.061 118.857 109.049 118.788L106.507 104.78C105.51 99.2831 110.31 94.4825 115.807 95.4799L129.815 98.0218L129.816 98.0221C129.886 98.0346 129.956 98.005 129.996 97.9472L138.104 86.2448C141.285 81.6527 148.075 81.6527 151.256 86.2448L156.328 93.5655V76.4215ZM128.561 162.395L115.197 164.82C115.076 164.807 114.953 164.801 114.828 164.801H113.85C113.52 164.594 113.318 164.201 113.396 163.774L113.396 163.773L115.93 149.802L115.936 149.767L115.937 149.765C116.433 147.033 115.308 144.203 112.955 142.577L101.258 134.474L101.258 134.474C100.685 134.076 100.685 133.227 101.258 132.83L101.258 132.83L112.955 124.726C115.349 123.072 116.415 120.227 115.941 117.562L115.939 117.55L115.937 117.538L113.395 103.53L113.395 103.53C113.27 102.842 113.871 102.243 114.557 102.367L114.557 102.367L128.565 104.909L128.574 104.911L128.575 104.911L128.576 104.911C131.388 105.418 134.157 104.208 135.73 101.963L135.74 101.948L135.75 101.934L143.858 90.2314L143.858 90.2311C144.256 89.6573 145.104 89.6572 145.502 90.2311L145.502 90.2314L153.604 101.926C155.203 104.242 158.016 105.417 160.799 104.908L174.802 102.368L174.802 102.368C175.488 102.243 176.089 102.843 175.964 103.53L175.964 103.531L173.429 117.502L173.423 117.532C172.925 120.265 174.048 123.098 176.402 124.726L188.1 132.83C188.674 133.228 188.674 134.076 188.1 134.474L176.403 142.578C174.11 144.163 172.909 146.965 173.423 149.775L175.963 163.773L175.963 163.774C176.088 164.461 175.487 165.061 174.801 164.936L174.801 164.936L160.803 162.396C157.989 161.88 155.187 163.086 153.605 165.377L145.501 177.072L145.501 177.073C145.104 177.645 144.256 177.647 143.858 177.072L143.858 177.072L135.757 165.379C134.138 163.032 131.308 161.894 128.561 162.395ZM10.3029 164.738C10.3147 164.75 10.3194 164.757 10.3194 164.757C10.3194 164.757 10.3131 164.752 10.3029 164.738ZM80.8281 149.801V124.301H71.3281C69.3951 124.301 67.8281 122.734 67.8281 120.801V112.801C67.8281 110.868 69.3951 109.301 71.3281 109.301H80.8281V90.9269C80.7586 90.1086 80.419 88.8546 79.6988 87.8781C79.0622 87.0149 78.1079 86.3007 76.3281 86.3007H51.4319C50.3717 86.3726 48.7458 86.7912 47.463 87.7337C46.3029 88.5861 45.3281 89.9084 45.3281 92.3007V149.801H80.8281ZM161.828 133.801C161.828 143.19 154.217 150.801 144.828 150.801C135.439 150.801 127.828 143.19 127.828 133.801C127.828 124.412 135.439 116.801 144.828 116.801C154.217 116.801 161.828 124.412 161.828 133.801ZM169.828 133.801C169.828 147.608 158.635 158.801 144.828 158.801C131.021 158.801 119.828 147.608 119.828 133.801C119.828 119.994 131.021 108.801 144.828 108.801C158.635 108.801 169.828 119.994 169.828 133.801Z" fill="black"/>
</svg>
